X: 461
T: The Sorrowful Maiden
N:"Moderate" "collected by J.O'Neill"
N:Irish title: an aindear .brona.c
B:O'Neill's 461
Z:Transcribed by henrik.norbeck@mailbox.swipnet.se
M:6/8
L:1/8
K:Gm
G/F/ | DGG/A/ G2 A/B/ | cAG/A/ F2 G | AGG Ace | d3 d2 d/=e/ |
fgg/=e/ fdd/c/ | dBB A2 (3d/c/A/ | GGA/G/ Acd/=e/ | f_ed g2 d/c/ |
B3/2B/A/G/ Adc/A/ | AGG G2 ||


